icons/lines/like-shapes.svg

<svg xmlns="http://www.w3.org/2000/svg" width="24" height="24" viewBox="0 0 24 24" fill="none" stroke="currentColor" stroke-width="2" stroke-linecap="round" stroke-linejoin="round" >
  <path d="M10.7499 2.44995C11.4399 1.85995 12.5699 1.85995 13.2699 2.44995L14.8499 3.81005C15.1499 4.07005 15.7099 4.28002 16.1099 4.28002H17.8099C18.8699 4.28002 19.7399 5.14996 19.7399 6.20996V7.91003C19.7399 8.30003 19.9499 8.87004 20.2099 9.17004L21.5699 10.75C22.1599 11.44 22.1599 12.57 21.5699 13.27L20.2099 14.85C19.9499 15.15 19.7399 15.71 19.7399 16.11V17.8101C19.7399 18.8701 18.8699 19.74 17.8099 19.74H16.1099C15.7199 19.74 15.1499 19.95 14.8499 20.21L13.2699 21.5699C12.5799 22.1599 11.4499 22.1599 10.7499 21.5699L9.16989 20.21C8.86989 19.95 8.30988 19.74 7.90988 19.74H6.17987C5.11987 19.74 4.24988 18.8701 4.24988 17.8101V16.1C4.24988 15.71 4.03989 15.15 3.78989 14.85L2.43988 13.26C1.85988 12.57 1.85988 11.45 2.43988 10.76L3.78989 9.17004C4.03989 8.87004 4.24988 8.31004 4.24988 7.92004V6.20996C4.24988 5.14996 5.11987 4.28002 6.17987 4.28002H7.90988C8.29988 4.28002 8.86989 4.07005 9.16989 3.81005L10.7499 2.44995Z"/>
  <path d="M9.89014 14.82L11.3401 15.94C11.5301 16.13 11.9501 16.22 12.2301 16.22H14.0001C14.5601 16.22 15.1701 15.8 15.3101 15.24L16.4301 11.82C16.6601 11.17 16.2401 10.6 15.5401 10.6H13.6701C13.3901 10.6 13.1601 10.3701 13.2001 10.0401L13.4301 8.54008C13.5201 8.12008 13.2401 7.65005 12.8201 7.51005C12.4501 7.37005 11.9801 7.56 11.7901 7.84L9.87012 10.69" stroke-miterlimit="10"/>
  <path d="M7.5 14.8199V10.24C7.5 9.57999 7.78 9.34998 8.44 9.34998H8.91C9.56 9.34998 9.85001 9.57999 9.85001 10.24V14.8199C9.85001 15.4699 9.57 15.71 8.91 15.71H8.44C7.78 15.71 7.5 15.4799 7.5 14.8199Z"/>
  </svg>

<svg xmlns="http://www.w3.org/2000/svg" width="24" height="24" viewBox="0 0 24 24" fill="none" stroke="currentColor" stroke-width="2" stroke-linecap="round" stroke-linejoin="round">
  <path d="M10.75 2.45c.69-.59 1.82-.59 2.52 0l1.58 1.36c.3.26.86.47 1.26.47h1.7a2 2 0 0 1 1.93 1.93v1.7c0 .39.21.96.47 1.26l1.36 1.58c.59.69.59 1.82 0 2.52l-1.36 1.58c-.26.3-.47.86-.47 1.26v1.7a2 2 0 0 1-1.93 1.93h-1.7c-.39 0-.96.21-1.26.47l-1.58 1.36c-.69.59-1.82.59-2.52 0l-1.58-1.36c-.3-.26-.86-.47-1.26-.47H6.18a2 2 0 0 1-1.93-1.93V16.1c0-.39-.21-.95-.46-1.25l-1.35-1.59c-.58-.69-.58-1.81 0-2.5l1.35-1.59c.25-.3.46-.86.46-1.25V6.21a2 2 0 0 1 1.93-1.93h1.73c.39 0 .96-.21 1.26-.47z" />
  <path d="M7.5 10.24c0-.66.28-.89.94-.89h.47c.65 0 .94.23.94.89v4.58c0 .65-.28.89-.94.89h-.47c-.66 0-.94-.23-.94-.89z" />
  <path d="m9.89 14.82 1.45 1.12c.19.19.61.28.89.28H14c.56 0 1.17-.42 1.31-.98l1.12-3.42c.23-.65-.19-1.22-.89-1.22h-1.87a.475.475 0 0 1-.47-.56l.23-1.5a1 1 0 0 0-.61-1.03c-.37-.14-.84.05-1.03.33l-1.92 2.85" />
</svg>
